gama.ui.shared/icons_svg/dark/navigator/files/folder.model.svg

<?xml version="1.0" encoding="UTF-8" standalone="no"?>
<!DOCTYPE svg PUBLIC "-//W3C//DTD SVG 1.1//EN" "http://www.w3.org/Graphics/SVG/1.1/DTD/svg11.dtd">
<svg xmlns="http://www.w3.org/2000/svg" xmlns:xl="http://www.w3.org/1999/xlink" version="1.1" xmlns:dc="http://purl.org/dc/elements/1.1/" viewBox="-606.87194 -3503.7364 20.750008 20.75" width="20.750008" height="20.75">
  <defs/>
  <g id="SOURCES" stroke-opacity="1" fill="none" stroke="none" fill-opacity="1" stroke-dasharray="none">
    <title>SOURCES</title>
    <g id="SOURCES_Dark">
      <title>Dark</title>
      <g id="Graphic_11675"/>
      <g id="Graphic_11674">
        <path d="M -605.49694 -3498.4068 L -597.09694 -3498.8068 L -595.09694 -3496.0068 L -587.49694 -3495.4068 L -587.49694 -3484.2068 L -605.49694 -3484.2068 Z" fill="#666566"/>
      </g>
      <g id="Graphic_11673">
        <path d="M -603.9969 -3498.3614 C -604.82536 -3498.3614 -605.4969 -3497.69 -605.4969 -3496.8614 L -605.4969 -3485.8614 C -605.4969 -3485.033 -604.82536 -3484.3614 -603.9969 -3484.3614 L -588.9969 -3484.3614 C -588.1685 -3484.3614 -587.4969 -3485.033 -587.4969 -3485.8614 L -587.4969 -3493.8614 C -587.4969 -3494.69 -588.1685 -3495.3614 -588.9969 -3495.3614 L -594.4969 -3495.3614 C -595.6015 -3495.3614 -596.4969 -3496.257 -596.4969 -3497.3614 C -596.4969 -3497.9137 -596.94465 -3498.3614 -597.4969 -3498.3614 Z M -603.9969 -3499.3614 L -597.4969 -3499.3614 C -596.39236 -3499.3614 -595.4969 -3498.466 -595.4969 -3497.3614 C -595.4969 -3496.809 -595.0492 -3496.3614 -594.4969 -3496.3614 L -588.9969 -3496.3614 C -587.6162 -3496.3614 -586.4969 -3495.242 -586.4969 -3493.8614 L -586.4969 -3485.8614 C -586.4969 -3484.4807 -587.6162 -3483.3614 -588.9969 -3483.3614 L -603.9969 -3483.3614 C -605.37764 -3483.3614 -606.4969 -3484.4807 -606.4969 -3485.8614 L -606.4969 -3496.8614 C -606.4969 -3498.242 -605.37764 -3499.3614 -603.9969 -3499.3614 Z" fill="white"/>
      </g>
    </g>
  </g>
</svg>

<svg height="20.75" viewBox="-606.872 -3503.736 20.75 20.75" width="20.75" xmlns="http://www.w3.org/2000/svg"><g fill="none"><path d="m-605.49694-3498.4068 8.4-.4 2 2.8 7.6.6v11.2h-18z" fill="#666566"/><path d="m-603.9969-3498.3614c-.82846 0-1.5.6714-1.5 1.5v11c0 .8284.67154 1.5 1.5 1.5h15c.8284 0 1.5-.6716 1.5-1.5v-8c0-.8286-.6716-1.5-1.5-1.5h-5.5c-1.1046 0-2-.8956-2-2 0-.5523-.44775-1-1-1zm0-1h6.5c1.10454 0 2 .8954 2 2 0 .5524.4477 1 1 1h5.5c1.3807 0 2.5 1.1194 2.5 2.5v8c0 1.3807-1.1193 2.5-2.5 2.5h-15c-1.38074 0-2.5-1.1193-2.5-2.5v-11c0-1.3806 1.11926-2.5 2.5-2.5z" fill="#fff"/></g></svg>
